X: 1
T: Mouse In The Kitchen
M: 6/8
L: 1/8
K: Amaj
|: c3 cde | dcA F2A | E3 ABc | B3 BAB |
c3 cde | dcA F2a | afe fec |1 Bce A3 :|2 Bce Adc||
|: B3 BAB | c3 BAF | B3 BAB | cea zdc |
B3 BAB | c3 BAF | afe fec |1 Bce Adc :|2 Bce A3|| 
